Newaita-dark/apps/64/com.github.danrabbit.nimbus.svg

<svg height="64" viewBox="0 0 64 64" width="64" xmlns="http://www.w3.org/2000/svg" xmlns:xlink="http://www.w3.org/1999/xlink"><linearGradient id="a"><stop offset="0" stop-opacity=".313726"/><stop offset=".222222" stop-opacity=".27451"/><stop offset="1" stop-opacity="0"/></linearGradient><radialGradient id="b" cx="450.908936" cy="189.579361" gradientTransform="matrix(.00000035 -.156265 -.281277 -.0000002 89.046304 127.190659)" gradientUnits="userSpaceOnUse" r="21.166656" xlink:href="#a"/><radialGradient id="c" cx="450.908936" cy="189.579361" gradientTransform="matrix(-.00000035 .156265 .281277 .0000002 -25.540237 -15.054964)" gradientUnits="userSpaceOnUse" r="21.166656" xlink:href="#a"/><radialGradient id="d" cx="450.908936" cy="189.579361" gradientTransform="matrix(-.00000035 -.156265 .281277 -.0000002 -25.540237 127.190659)" gradientUnits="userSpaceOnUse" r="21.166656" xlink:href="#a"/><radialGradient id="e" cx="450.908936" cy="189.579361" gradientTransform="matrix(.00000035 .156265 -.281277 .0000002 89.0463 -15.054965)" gradientUnits="userSpaceOnUse" r="21.166656" xlink:href="#a"/><linearGradient id="f" gradientTransform="matrix(.0267201 0 0 .125012 24.930772 26.877567)" gradientUnits="userSpaceOnUse" x1="255.323059" x2="255.323044" y1="233.5" y2="254.666656"><stop offset="0" stop-opacity=".27451"/><stop offset="1" stop-opacity="0"/></linearGradient><linearGradient id="g" gradientUnits="userSpaceOnUse" x1="31.753048" x2="31.753048" y1="5.79220799994" y2="56.067868"><stop offset="0" stop-color="#64b5f6"/><stop offset="1" stop-color="#42a5f5"/></linearGradient><linearGradient id="h" gradientUnits="userSpaceOnUse" x1="31.753056" x2="31.753056" y1="56.06789790428" y2="5.792224912"><stop offset="0" stop-color="#bdbdbd"/><stop offset="1" stop-color="#e0e0e0"/></linearGradient><path d="m36.382812 56.066406h5.292969v-2.644531h-5.292969zm0 0" fill="url(#b)"/><path d="m27.121094 56.066406h-5.289063v2.648438h5.289063zm0 0" fill="url(#c)"/><path d="m27.121094 56.066406h-5.289063v-2.644531h5.289063zm0 0" fill="url(#d)"/><path d="m36.382812 56.066406h5.292969v2.648438h-5.292969zm0 0" fill="url(#e)"/><path d="m27.121094 55.40625h9.261718v3.308594h-9.261718zm0 0" fill="url(#f)"/><path d="m31.753906 5.792969c13.882813 0 25.136719 11.253906 25.136719 25.136719 0 13.882812-11.253906 25.136718-25.136719 25.136718-13.882812 0-25.140625-11.253906-25.140625-25.136718 0-13.882813 11.257813-25.136719 25.140625-25.136719zm0 0" fill="url(#g)"/><path d="m31.753906 56.066406c-13.925781 0-25.140625-11.210937-25.140625-25.136718 0-.082032.003907-.164063.003907-.246094.128906 13.8125 11.292968 24.890625 25.136718 24.890625s25.003906-11.078125 25.136719-24.890625v.246094c0 13.925781-11.210937 25.136718-25.136719 25.136718zm0 0" fill-opacity=".196078"/><path d="m31.753906 5.792969c-13.925781 0-25.140625 11.210937-25.140625 25.136719 0 .082031.003907.164062.003907.246093.128906-13.8125 11.292968-24.890625 25.136718-24.890625s25.003906 11.078125 25.136719 24.890625c0-.082031 0-.164062 0-.246093 0-13.925782-11.210937-25.136719-25.136719-25.136719zm0 0" fill="#fff" fill-opacity=".392157"/><path d="m31.753906 5.605469c-14.027344 0-25.328125 11.296875-25.328125 25.324219 0 14.027343 11.300781 25.324218 25.328125 25.324218s25.324219-11.296875 25.324219-25.324218c0-14.027344-11.296875-25.324219-25.324219-25.324219zm0 .375c13.824219 0 24.949219 11.125 24.949219 24.949219 0 13.824218-11.125 24.949218-24.949219 24.949218-13.828125 0-24.953125-11.125-24.953125-24.949218 0-13.824219 11.125-24.949219 24.953125-24.949219zm0 0" fill="#212121"/><path d="m35.0625 17.699219c-3.53125 0-6.457031 2.484375-7.132812 5.808593-.636719-.328124-1.359376-.515624-2.128907-.515624-2.566406 0-4.632812 2.066406-4.632812 4.628906 0 .332031.035156.65625.101562.964844-2.371093.785156-4.070312 3.011718-4.070312 5.652343 0 3.296875 2.65625 5.953125 5.953125 5.953125h17.863281v-.035156c2.984375-.328125 5.289063-2.84375 5.289063-5.917969 0-2.910156-2.0625-5.316406-4.8125-5.847656.539062-1.015625.84375-2.179687.84375-3.414063 0-4.03125-3.242188-7.277343-7.273438-7.277343zm0 0" fill="url(#h)"/><path d="m35.0625 17.699219c-3.53125 0-6.457031 2.484375-7.132812 5.808593-.636719-.328124-1.359376-.515624-2.128907-.515624-2.566406 0-4.632812 2.066406-4.632812 4.628906 0 .140625.007812.277344.019531.410156.210938-2.367188 2.1875-4.210938 4.613281-4.210938.769531 0 1.492188.183594 2.128907.515626.675781-3.324219 3.601562-5.808594 7.132812-5.808594 3.890625 0 7.050781 3.023437 7.261719 6.859375.007812-.136719.011719-.273438.011719-.410157 0-4.03125-3.242188-7.277343-7.273438-7.277343zm6.933594 10.8125c-.132813.417969-.300782.820312-.503906 1.203125.117187.023437.230468.046875.34375.078125.058593-.148438.113281-.300781.160156-.453125 2.367187.671875 4.121094 2.765625 4.296875 5.308594.007812-.136719.011719-.273438.011719-.410157 0-2.726562-1.8125-5.015625-4.308594-5.726562zm-20.824219.109375c-2.320313.8125-3.972656 3.011718-3.972656 5.617187 0 .136719.003906.273438.015625.410157.164062-2.421876 1.769531-4.4375 3.964844-5.203126-.007813.105469-.011719.214844-.011719.328126 0 .054687.003906.113281.003906.167968.03125-.011718.0625-.019531.097656-.03125-.066406-.3125-.101562-.632812-.101562-.964844 0-.082031.003906-.164062.007812-.246093 0-.027344-.003906-.054688-.003906-.078125zm0 0" fill="#fff"/><path d="m42.304688 25.660156c-.089844.980469-.375 1.902344-.8125 2.730469.175781.035156.347656.078125.515624.125.214844-.6875.328126-1.417969.328126-2.179687 0-.230469-.007813-.453126-.03125-.675782zm-21.085938 2.640625c-.015625.105469-.027344.210938-.035156.316407.027344-.011719.054687-.019532.085937-.03125-.019531-.09375-.039062-.1875-.050781-.285157zm-3.980469 6.617188c-.027343.222656-.039062.449219-.039062.679687 0 3.296875 2.65625 5.953125 5.953125 5.953125h17.863281v-.035156c2.984375-.328125 5.289063-2.84375 5.289063-5.917969 0-.230468-.011719-.457031-.035157-.679687-.3125 2.757812-2.492187 4.933593-5.253906 5.238281v.035156h-17.863281c-3.066406 0-5.578125-2.296875-5.914063-5.273437zm0 0" fill-opacity=".235294"/><path d="m1060.056306 535.106408c-106.761464 0-195.217589 75.110942-215.64871 175.613161-19.250131-9.920313-41.098439-15.589064-64.363935-15.589064-77.59102 0-140.065372 62.474353-140.065372 139.947273 0 10.038412 1.062891 19.840626 3.070573 29.170445-71.686072 23.737891-123.059121 91.054301-123.059121 170.889201 0 99.675526 80.307296 179.982822 179.982822 179.982822h540.066565v-1.062891c90.227609-9.920313 159.905998-85.976046 159.905998-178.919931 0-87.983728-62.356254-160.732691-145.497925-176.79415 16.297657-30.70573 25.509377-65.899222 25.509377-103.218495 0-121.878131-98.022141-220.018371-219.900272-220.018371zm0 0" fill="none" stroke="#212121" stroke-linecap="round" stroke-linejoin="round" stroke-width="11.338583" transform="scale(.0330761)"/></svg>

<?xml version="1.0" encoding="UTF-8"?>
<svg xmlns="http://www.w3.org/2000/svg" xmlns:xlink="http://www.w3.org/1999/xlink" width="64px" height="64px" viewBox="0 0 64 64" version="1.1">
<defs>
<radialGradient id="radial0" gradientUnits="userSpaceOnUse" cx="450.908936" cy="189.579361" fx="450.908936" fy="189.579361" r="21.166656" gradientTransform="matrix(0.000000348341,-0.156265,-0.281277,-0.000000203077,89.046304,127.190659)">
<stop offset="0" style="stop-color:rgb(0%,0%,0%);stop-opacity:0.313726;"/>
<stop offset="0.222222" style="stop-color:rgb(0%,0%,0%);stop-opacity:0.27451;"/>
<stop offset="1" style="stop-color:rgb(0%,0%,0%);stop-opacity:0;"/>
</radialGradient>
<radialGradient id="radial1" gradientUnits="userSpaceOnUse" cx="450.908936" cy="189.579361" fx="450.908936" fy="189.579361" r="21.166656" gradientTransform="matrix(-0.000000348341,0.156265,0.281277,0.000000203077,-25.540237,-15.054964)">
<stop offset="0" style="stop-color:rgb(0%,0%,0%);stop-opacity:0.313726;"/>
<stop offset="0.222222" style="stop-color:rgb(0%,0%,0%);stop-opacity:0.27451;"/>
<stop offset="1" style="stop-color:rgb(0%,0%,0%);stop-opacity:0;"/>
</radialGradient>
<radialGradient id="radial2" gradientUnits="userSpaceOnUse" cx="450.908936" cy="189.579361" fx="450.908936" fy="189.579361" r="21.166656" gradientTransform="matrix(-0.000000348341,-0.156265,0.281277,-0.000000203077,-25.540237,127.190659)">
<stop offset="0" style="stop-color:rgb(0%,0%,0%);stop-opacity:0.313726;"/>
<stop offset="0.222222" style="stop-color:rgb(0%,0%,0%);stop-opacity:0.27451;"/>
<stop offset="1" style="stop-color:rgb(0%,0%,0%);stop-opacity:0;"/>
</radialGradient>
<radialGradient id="radial3" gradientUnits="userSpaceOnUse" cx="450.908936" cy="189.579361" fx="450.908936" fy="189.579361" r="21.166656" gradientTransform="matrix(0.000000348341,0.156265,-0.281277,0.000000203077,89.0463,-15.054965)">
<stop offset="0" style="stop-color:rgb(0%,0%,0%);stop-opacity:0.313726;"/>
<stop offset="0.222222" style="stop-color:rgb(0%,0%,0%);stop-opacity:0.27451;"/>
<stop offset="1" style="stop-color:rgb(0%,0%,0%);stop-opacity:0;"/>
</radialGradient>
<linearGradient id="linear0" gradientUnits="userSpaceOnUse" x1="255.323059" y1="233.5" x2="255.323044" y2="254.666656" gradientTransform="matrix(0.0267201,0,0,0.125012,24.930772,26.877567)">
<stop offset="0" style="stop-color:rgb(0%,0%,0%);stop-opacity:0.27451;"/>
<stop offset="1" style="stop-color:rgb(0%,0%,0%);stop-opacity:0;"/>
</linearGradient>
<linearGradient id="linear1" gradientUnits="userSpaceOnUse" x1="254" y1="-168.666672" x2="254" y2="233.5" gradientTransform="matrix(0.125012,0,0,0.125012,0,26.877566)">
<stop offset="0" style="stop-color:rgb(39.215687%,70.980394%,96.470588%);stop-opacity:1;"/>
<stop offset="1" style="stop-color:rgb(25.882354%,64.705884%,96.078432%);stop-opacity:1;"/>
</linearGradient>
<linearGradient id="linear2" gradientUnits="userSpaceOnUse" x1="960" y1="1695.118164" x2="960" y2="175.118134" gradientTransform="matrix(0.0330761,0,0,0.0330761,0,0)">
<stop offset="0" style="stop-color:rgb(74.117649%,74.117649%,74.117649%);stop-opacity:1;"/>
<stop offset="1" style="stop-color:rgb(87.843138%,87.843138%,87.843138%);stop-opacity:1;"/>
</linearGradient>
</defs>
<g id="surface1">
<path style=" stroke:none;fill-rule:nonzero;fill:url(#radial0);" d="M 36.382812 56.066406 L 41.675781 56.066406 L 41.675781 53.421875 L 36.382812 53.421875 Z M 36.382812 56.066406 "/>
<path style=" stroke:none;fill-rule:nonzero;fill:url(#radial1);" d="M 27.121094 56.066406 L 21.832031 56.066406 L 21.832031 58.714844 L 27.121094 58.714844 Z M 27.121094 56.066406 "/>
<path style=" stroke:none;fill-rule:nonzero;fill:url(#radial2);" d="M 27.121094 56.066406 L 21.832031 56.066406 L 21.832031 53.421875 L 27.121094 53.421875 Z M 27.121094 56.066406 "/>
<path style=" stroke:none;fill-rule:nonzero;fill:url(#radial3);" d="M 36.382812 56.066406 L 41.675781 56.066406 L 41.675781 58.714844 L 36.382812 58.714844 Z M 36.382812 56.066406 "/>
<path style=" stroke:none;fill-rule:nonzero;fill:url(#linear0);" d="M 27.121094 55.40625 L 36.382812 55.40625 L 36.382812 58.714844 L 27.121094 58.714844 Z M 27.121094 55.40625 "/>
<path style=" stroke:none;fill-rule:nonzero;fill:url(#linear1);" d="M 31.753906 5.792969 C 45.636719 5.792969 56.890625 17.046875 56.890625 30.929688 C 56.890625 44.8125 45.636719 56.066406 31.753906 56.066406 C 17.871094 56.066406 6.613281 44.8125 6.613281 30.929688 C 6.613281 17.046875 17.871094 5.792969 31.753906 5.792969 Z M 31.753906 5.792969 "/>
<path style=" stroke:none;fill-rule:nonzero;fill:rgb(0%,0%,0%);fill-opacity:0.196078;" d="M 31.753906 56.066406 C 17.828125 56.066406 6.613281 44.855469 6.613281 30.929688 C 6.613281 30.847656 6.617188 30.765625 6.617188 30.683594 C 6.746094 44.496094 17.910156 55.574219 31.753906 55.574219 C 45.597656 55.574219 56.757812 44.496094 56.890625 30.683594 C 56.890625 30.765625 56.890625 30.847656 56.890625 30.929688 C 56.890625 44.855469 45.679688 56.066406 31.753906 56.066406 Z M 31.753906 56.066406 "/>
<path style=" stroke:none;fill-rule:nonzero;fill:rgb(100%,100%,100%);fill-opacity:0.392157;" d="M 31.753906 5.792969 C 17.828125 5.792969 6.613281 17.003906 6.613281 30.929688 C 6.613281 31.011719 6.617188 31.09375 6.617188 31.175781 C 6.746094 17.363281 17.910156 6.285156 31.753906 6.285156 C 45.597656 6.285156 56.757812 17.363281 56.890625 31.175781 C 56.890625 31.09375 56.890625 31.011719 56.890625 30.929688 C 56.890625 17.003906 45.679688 5.792969 31.753906 5.792969 Z M 31.753906 5.792969 "/>
<path style=" stroke:none;fill-rule:nonzero;fill:rgb(12.941177%,12.941177%,12.941177%);fill-opacity:1;" d="M 31.753906 5.605469 C 17.726562 5.605469 6.425781 16.902344 6.425781 30.929688 C 6.425781 44.957031 17.726562 56.253906 31.753906 56.253906 C 45.78125 56.253906 57.078125 44.957031 57.078125 30.929688 C 57.078125 16.902344 45.78125 5.605469 31.753906 5.605469 Z M 31.753906 5.980469 C 45.578125 5.980469 56.703125 17.105469 56.703125 30.929688 C 56.703125 44.753906 45.578125 55.878906 31.753906 55.878906 C 17.925781 55.878906 6.800781 44.753906 6.800781 30.929688 C 6.800781 17.105469 17.925781 5.980469 31.753906 5.980469 Z M 31.753906 5.980469 "/>
<path style=" stroke:none;fill-rule:nonzero;fill:url(#linear2);" d="M 35.0625 17.699219 C 31.53125 17.699219 28.605469 20.183594 27.929688 23.507812 C 27.292969 23.179688 26.570312 22.992188 25.800781 22.992188 C 23.234375 22.992188 21.167969 25.058594 21.167969 27.621094 C 21.167969 27.953125 21.203125 28.277344 21.269531 28.585938 C 18.898438 29.371094 17.199219 31.597656 17.199219 34.238281 C 17.199219 37.535156 19.855469 40.191406 23.152344 40.191406 L 41.015625 40.191406 L 41.015625 40.15625 C 44 39.828125 46.304688 37.3125 46.304688 34.238281 C 46.304688 31.328125 44.242188 28.921875 41.492188 28.390625 C 42.03125 27.375 42.335938 26.210938 42.335938 24.976562 C 42.335938 20.945312 39.09375 17.699219 35.0625 17.699219 Z M 35.0625 17.699219 "/>
<path style=" stroke:none;fill-rule:nonzero;fill:rgb(100%,100%,100%);fill-opacity:1;" d="M 35.0625 17.699219 C 31.53125 17.699219 28.605469 20.183594 27.929688 23.507812 C 27.292969 23.179688 26.570312 22.992188 25.800781 22.992188 C 23.234375 22.992188 21.167969 25.058594 21.167969 27.621094 C 21.167969 27.761719 21.175781 27.898438 21.1875 28.03125 C 21.398438 25.664062 23.375 23.820312 25.800781 23.820312 C 26.570312 23.820312 27.292969 24.003906 27.929688 24.335938 C 28.605469 21.011719 31.53125 18.527344 35.0625 18.527344 C 38.953125 18.527344 42.113281 21.550781 42.324219 25.386719 C 42.332031 25.25 42.335938 25.113281 42.335938 24.976562 C 42.335938 20.945312 39.09375 17.699219 35.0625 17.699219 Z M 41.996094 28.511719 C 41.863281 28.929688 41.695312 29.332031 41.492188 29.714844 C 41.609375 29.738281 41.722656 29.761719 41.835938 29.792969 C 41.894531 29.644531 41.949219 29.492188 41.996094 29.339844 C 44.363281 30.011719 46.117188 32.105469 46.292969 34.648438 C 46.300781 34.511719 46.304688 34.375 46.304688 34.238281 C 46.304688 31.511719 44.492188 29.222656 41.996094 28.511719 Z M 21.171875 28.621094 C 18.851562 29.433594 17.199219 31.632812 17.199219 34.238281 C 17.199219 34.375 17.203125 34.511719 17.214844 34.648438 C 17.378906 32.226562 18.984375 30.210938 21.179688 29.445312 C 21.171875 29.550781 21.167969 29.660156 21.167969 29.773438 C 21.167969 29.828125 21.171875 29.886719 21.171875 29.941406 C 21.203125 29.929688 21.234375 29.921875 21.269531 29.910156 C 21.203125 29.597656 21.167969 29.277344 21.167969 28.945312 C 21.167969 28.863281 21.171875 28.78125 21.175781 28.699219 C 21.175781 28.671875 21.171875 28.644531 21.171875 28.621094 Z M 21.171875 28.621094 "/>
<path style=" stroke:none;fill-rule:nonzero;fill:rgb(0%,0%,0%);fill-opacity:0.235294;" d="M 42.304688 25.660156 C 42.214844 26.640625 41.929688 27.5625 41.492188 28.390625 C 41.667969 28.425781 41.839844 28.46875 42.007812 28.515625 C 42.222656 27.828125 42.335938 27.097656 42.335938 26.335938 C 42.335938 26.105469 42.328125 25.882812 42.304688 25.660156 Z M 21.21875 28.300781 C 21.203125 28.40625 21.191406 28.511719 21.183594 28.617188 C 21.210938 28.605469 21.238281 28.597656 21.269531 28.585938 C 21.25 28.492188 21.230469 28.398438 21.21875 28.300781 Z M 17.238281 34.917969 C 17.210938 35.140625 17.199219 35.367188 17.199219 35.597656 C 17.199219 38.894531 19.855469 41.550781 23.152344 41.550781 L 41.015625 41.550781 L 41.015625 41.515625 C 44 41.1875 46.304688 38.671875 46.304688 35.597656 C 46.304688 35.367188 46.292969 35.140625 46.269531 34.917969 C 45.957031 37.675781 43.777344 39.851562 41.015625 40.15625 L 41.015625 40.191406 L 23.152344 40.191406 C 20.085938 40.191406 17.574219 37.894531 17.238281 34.917969 Z M 17.238281 34.917969 "/>
<path style="fill:none;stroke-width:11.338583;stroke-linecap:round;stroke-linejoin:round;stroke:rgb(12.941177%,12.941177%,12.941177%);stroke-opacity:1;stroke-miterlimit:4;" d="M 1060.056306 535.106408 C 953.294842 535.106408 864.838717 610.21735 844.407596 710.719569 C 825.157465 700.799256 803.309157 695.130505 780.043661 695.130505 C 702.452641 695.130505 639.978289 757.604858 639.978289 835.077778 C 639.978289 845.11619 641.04118 854.918404 643.048862 864.248223 C 571.36279 887.986114 519.989741 955.302524 519.989741 1035.137424 C 519.989741 1134.81295 600.297037 1215.120246 699.972563 1215.120246 L 1240.039128 1215.120246 L 1240.039128 1214.057355 C 1330.266737 1204.137042 1399.945126 1128.081309 1399.945126 1035.137424 C 1399.945126 947.153696 1337.588872 874.404733 1254.447201 858.343274 C 1270.744858 827.637544 1279.956578 792.444052 1279.956578 755.124779 C 1279.956578 633.246648 1181.934437 535.106408 1060.056306 535.106408 Z M 1060.056306 535.106408 " transform="matrix(0.0330761,0,0,0.0330761,0,0)"/>
</g>
</svg>
